!!!!SEGMENT: pl-kk--kk-i-3--005-002_anonim--officium-de-assumptione-de-bmv-proptem-veritatem.krn
!!!cenid: 15xx:571
!!!COM: Anonim
!!!COM-rismID: pe30004985
!!!CDT:
!!!CNT:
!!!OPR: Officium de Assumptione de BMV
!!!OTL: Proptem veritatem
!!!OMV: 002
!!!PDT:
!!!AGN:
!!!SMS-siglum: PL-Kk
!!!SMS-shelfmark: Kk.I.3
!!!SMS-shelfwork: 005-002 M
!!!SMS-variant:
!!!SMS-altvar:
!!!NIFC-rismSourceID: 1001145497
!!!NIFC-islandoraID: pl-kk:1170
!!!URL-pdf-islandora: https://repozytorium.nifc.pl/islandora/object/pl-kk%3A1170/datastream/PDF/view
!!!URL-scan: https://polish.musicsources.pl/pl/lokalizacje/galeria/rekopisy/5919 @EN{Scan on Polish Music Sources Website} @PL{Skany w portalu Dziedzictwo Muzyki Polskiej w otwartym dostępie}
!!!ONB-nifc: UWAGA: Discantus (s. 10v-12r, skan 0013-0014), Tenor (s. 9r-10r, skan 0181-0182), Bassus (s. 7v-8v, skan 0311-0312). Następna część: Alleluia
!!!AIN: 1 bass 1 empty 1 tenor
!!!key:
**kern	**text	**kern	**text	**kern	**text
*part3	*part3	*part2	*part2	*part1	*part1
*staff3	*staff3	*staff2	*staff2	*staff1	*staff1
*Ibass	*	*Itenor	*	*Iempty	*
*I"Bassus	*	*I"Tenor	*	*I"Discantus	*
*I'B	*	*I'T	*	*I'S	*
*clefF3	*	*clefC4	*	*clefC3	*
*k[b-]	*	*k[b-]	*	*k[b-]	*
*F:	*	*F:	*	*F:	*
*M2/1	*	*M2/1	*	*M2/1	*
*met(C)	*	*met(C)	*	*met(C)	*
=1-	=1-	=1-	=1-	=1-	=1-
1F\	Pro-	1F/	pro-	1c\	Pro-
*lig	*	*	*	*	*
1D/	.	1F/	.	2d/	.
.	.	.	.	1f\	.
=2-	=2-	=2-	=2-	=2-	=2-
1C/	.	1G/	.	.	.
.	.	.	.	2e/	.
*Xlig	*	*	*	*	*
1D/	-pter	1F/	-pter	1f\	-pter
=3-	=3-	=3-	=3-	=3-	=3-
1D/	ve-	1F/	ve-	1f\	ve-
*	*	*	*	*lig	*
1C/	-ri-	1G/	-ri-	1e\	-ri-
=4-	=4-	=4-	=4-	=4-	=4-
*	*	*custos:A	*	*	*
1c\	-ta-	1A\	.	1c\	.
!	!	!LO:LB:g=original	!	!	!
*lig	*	*lig	*	*Xlig	*
1c\	.	1A\	-ta-	2c/	-ta-
.	.	.	.	1f\	.
=5-	=5-	=5-	=5-	=5-	=5-
1B-\	.	1G/	.	.	.
.	.	.	.	2e/	.
*Xlig	*	*Xlig	*	*	*
*lig	*	*lig	*	*	*
1c\	.	1A\	.	1f\	.
=6-	=6-	=6-	=6-	=6-	=6-
*	*	*	*	*custos:f	*
1B-\	.	1F/	.	1f\	.
*Xlig	*	*Xlig	*	*	*
!	!	!	!	!LO:LB:g=original	!
1A\	-tem	1F/	-tem	1f\	-tem
=7-	=7-	=7-	=7-	=7-	=7-
2G/	et	1G/	et	1d\	et
1F\	man-	.	.	.	.
.	.	1G/	man-	2d/	man-
2E/	-su-	.	.	2e/	su-
=8-	=8-	=8-	=8-	=8-	=8-
1F\	-e-	1F/	-ſu-	1c\	-e-
!LO:LB:g=original	!	!	!	!	!
1BB-/	-tu-	1F/	-e-	1d\	-tu-
=9-	=9-	=9-	=9-	=9-	=9-
*lig	*	*	*	*	*
1D/	-di-	1F/,<	-tu-	2d,</	-di-
.	.	.	.	2B-/	.
*	*	*lig	*	*	*
1C/	.	1G/	-di-	1c\	.
*Xlig	*	*	*	*	*
=10-	=10-	=10-	=10-	=10-	=10-
2D/	.	1F/	.	2A/	.
2BB-/	.	.	.	2d/	.
*	*	*Xlig	*	*	*
1F\	nem	1F/,<	nem	1c\,<	-ne(m)
=11-	=11-	=11-	=11-	=11-	=11-
2BB-/	et	1F/,<	et	2B-/	et
2F/	iu-	.	.	2A/	iu-
2D/	.	1F/	iu-	2B-/	.
2BB-/	.	.	.	1d\	-sti-
=12-	=12-	=12-	=12-	=12-	=12-
*	*	*lig	*	*2\right	*
1D/	-sti-	1F/	-sti-	.	.
.	.	.	.	2f\	.
1C/	.	1G/	.	1e\	.
*	*	*Xlig	*	*	*
=13-	=13-	=13-	=13-	=13-	=13-
*	*	*custos:B	*	*custos:g	*
2BB-/	.	1B-X\	.	1d\	.
1B-\	-ci-	.	.	.	.
!	!	!LO:PB:g=original	!	!LO:LB:g=original	!
*	*	*lig	*	*	*
.	.	1B-\	-ci-	1g\	-ci-
2E-X/	.	.	.	.	.
=14-	=14-	=14-	=14-	=14-	=14-
1F\	.	1A\	.	1c\	.
*	*	*Xlig	*	*	*
*	*	*lig	*	*	*
2E-/	.	1B-\	.	2g\	.
2BB-/	.	.	.	1f\	.
=15-	=15-	=15-	=15-	=15-	=15-
1C/	.	1G/	.	.	.
.	.	.	.	2e/	.
*	*	*Xlig	*	*	*
!LO:LB:g=original	!	!	!	!	!
1D/	.	1F/	.	1f\	.
=16-	=16-	=16-	=16-	=16-	=16-
1C/	.	1G/	.	1e\	.
2BB-/	.	1B-\	.	1d\	.
1B-\	.	.	.	.	.
=17-	=17-	=17-	=17-	=17-	=17-
*	*	*lig	*	*	*
.	.	1c\	.	1f\	.
2A\	.	.	.	.	.
1B-\	.	1B-\	.	1d\	.
*	*	*Xlig	*	*	*
=18-	=18-	=18-	=18-	=18-	=18-
*	*	*lig	*	*	*
1BB-/	.	1B-\	.	2d/	.
.	.	.	.	1f\	.
1C/	.	1G/	.	.	.
.	.	.	.	2e\	.
*	*	*Xlig	*	*	*
=19-	=19-	=19-	=19-	=19-	=19-
2BB-/	.	1B-\	.	1f\	.
1B-\	.	.	.	.	.
.	.	1c\	.	1e\	.
2A\	.	.	.	.	.
=20-	=20-	=20-	=20-	=20-	=20-
*	*	*lig	*	*	*
2B-\	.	1B-\	.	2d/	.
2BB-/	.	.	.	2B-/	.
1F\	.	1A\	.	1c\	.
*	*	*Xlig	*	*	*
=21-	=21-	=21-	=21-	=21-	=21-
*	*	*	*	*custos:f	*
2BB-/	.	1B-\	.	1d\	.
1B-\	.	.	.	.	.
!	!	!	!	!LO:LB:g=original	!
.	.	1c\	.	1f\	.
2A\	.	.	.	.	.
=22-	=22-	=22-	=22-	=22-	=22-
*	*	*lig	*	*	*
2B-\	.	1B-\	.	1d\	.
*custos:C	*	*	*	*	*
2BB-/	.	.	.	.	.
!LO:LB:g=original	!	!	!	!	!
1C/	.	1A\	.	1c\	.
*	*	*Xlig	*	*	*
=23-	=23-	=23-	=23-	=23-	=23-
*	*	*lig	*	*	*
1BB-/	-am	1B-\	am	1d\	-am
*	*	*custos:G	*	*	*
1C/	.	1G/	.	2e/	.
.	.	.	.	1f\	et
!	!	!LO:LB:g=original	!	!	!
*lig	*	*Xlig	*	*	*
=24-	=24-	=24-	=24-	=24-	=24-
1C/	et	1G/	et	.	.
.	.	.	.	2e\	.
*	*	*lig	*	*	*
1BB-/	.	1B-\	.	1f\	.
*Xlig	*	*	*	*	*
=25-	=25-	=25-	=25-	=25-	=25-
1F\	de-	1A\	.	2f\	.
.	.	.	.	1F/	de-
*lig	*	*Xlig	*	*	*
1D/	.	1B-\	de-	.	.
.	.	.	.	2F/	-du-
=26-	=26-	=26-	=26-	=26-	=26-
1C/	.	1c\	.	1G/	.
*Xlig	*	*	*	*	*
1C/	-du-	1c\	-du-	2G/	.
.	.	.	.	1g\	.
=27-	=27-	=27-	=27-	=27-	=27-
1G\	-cet	1B-\	-cet	.	.
.	.	.	.	2d/	-cet
*	*	*lig	*	*	*
1F\	.	1c\	.	1f\	.
=28-	=28-	=28-	=28-	=28-	=28-
1BB-/	.	1B-\	.	1d\	.
1D/	.	1F/	.	1f\	.
*	*	*Xlig	*	*	*
=29-	=29-	=29-	=29-	=29-	=29-
*	*	*	*	*custos:f	*
2C/	.	1G/	.	2e/	.
!	!	!	!	!LO:PB:g=original	!
2BB-/	.	.	.	1f\	.
1C/	te	1G/	te	.	.
.	.	.	.	2e/	te
=30-	=30-	=30-	=30-	=30-	=30-
1BB-/	.	1B-\	.	1f\	.
1C/	.	1G/	mi-	1e\,<	mi-
=31-	=31-	=31-	=31-	=31-	=31-
*	*	*lig	*	*	*
2BB-/	.	1B-\	.	1d\	.
1B-\	.	.	.	.	.
.	.	1G/	.	1g\	.
*custos:F	*	*	*	*	*
1G\	mi-	.	.	.	.
*	*	*Xlig	*	*	*
!LO:LB:g=original	!	!	!	!	!
=32-	=32-	=32-	=32-	=32-	=32-
.	.	1A\	-ra-	2e/	ra-
2F/	-ra-	.	.	2f/	-bi-
1G\	-bi-	1B-\	-bi-	1d\	.
=33-	=33-	=33-	=33-	=33-	=33-
*	*	*lig	*	*	*
1C/	.	1c\	.	1e\	.
1G\	.	1B-\	.	2d/	.
.	.	.	.	1g\	-li-
*	*	*Xlig	*	*	*
=34-	=34-	=34-	=34-	=34-	=34-
*	*	*lig	*	*	*
1C/	-li-	1c\	-li-	.	.
.	.	.	.	2g\	.
*	*	*custos:B	*	*	*
1D/	.	1A\	.	1f\	.
*	*	*Xlig	*	*	*
!	!	!LO:LB:g=original	!	!	!
=35-	=35-	=35-	=35-	=35-	=35-
*	*	*lig	*	*	*
1BB-/	.	1B-\	.	1d\	.
1C/	.	1G/	.	1c\	.
=36-	=36-	=36-	=36-	=36-	=36-
*lig	*	*	*	*	*
*	*	*	*	*custos:c	*
1D/	.	1F/	.	1B-/	.
!	!	!	!	!LO:LB:g=original	!
*	*	*Xlig	*	*	*
1C/	.	1G/	.	1c\	.
*Xlig	*	*	*	*	*
=37-	=37-	=37-	=37-	=37-	=37-
1C/	-ter	1G/	-ter	1c\	-ter
*	*	*lig	*	*	*
1BB-/	dex-	1B-\	dex-	2d/	dex-
.	.	.	.	2B-/	.
=38-	=38-	=38-	=38-	=38-	=38-
1F\	.	1A\	.	1c\	.
*	*	*Xlig	*	*	*
*	*	*lig	*	*	*
1BB-/	.	1B-\	.	2B-/	.
.	.	.	.	1f\	.
=39-	=39-	=39-	=39-	=39-	=39-
1C/	.	1G/	.	.	.
.	.	.	.	2e\	.
*lig	*	*Xlig	*	*	*
1D/	-te-	1F/	-te-	1f\	te-
=40-	=40-	=40-	=40-	=40-	=40-
1C/	.	1G/	.	1e\	.
*Xlig	*	*lig	*	*	*
1G\	.	1B-\	-ra	1g\	-ra
=41-	=41-	=41-	=41-	=41-	=41-
1G\	-ra	1B-\	.	1g\	.
*	*	*Xlig	*	*	*
*custos:c	*	*	*	*	*
2C/	.	1c\	.	2g\	.
!LO:PB:g=original	!	!	!	!	!
1c\	.	.	.	2f\	.
=42-	=42-	=42-	=42-	=42-	=42-
*	*	*lig	*	*	*
.	.	1d\	.	1g\	.
2B-/	.	.	.	.	.
2A/	.	1c\	.	2e\	.
2F/	.	.	.	2f\	.
*	*	*Xlig	*	*	*
=43-	=43-	=43-	=43-	=43-	=43-
1G\	.	1B-\	.	1d\	.
*	*	*lig	*	*	*
*	*	*	*	*custos:f	*
1C/	.	1c\	.	1e\	.
!	!	!	!	!LO:LB:g=original	!
=44-	=44-	=44-	=44-	=44-	=44-
1D/	.	1A\	.	1f\	.
*	*	*Xlig	*	*	*
*	*	*lig	*	*	*
1BB-/	.	1B-\	.	1d\	.
=45-	=45-	=45-	=45-	=45-	=45-
1C/	.	1G/	.	1c\	.
*	*	*Xlig	*	*	*
*	*	*lig	*	*	*
1D/	.	1F/	.	1A/	.
=46-	=46-	=46-	=46-	=46-	=46-
1BB-/	.	1D/	.	1B-/	.
*	*	*Xlig	*	*	*
*	*	*custos:F	*	*	*
2BB-/	.	1F/	.	1F/	.
1D/	.	.	.	.	.
!	!	!LO:LB:g=original	!	!	!
=47-	=47-	=47-	=47-	=47-	=47-
.	.	1F/	tu-	2F/	.
2D/	.	.	.	1f\	tu-
*	*	*lig	*	*	*
1C/	tu-	1G/	.	.	.
.	.	.	.	2e\	.
=48-	=48-	=48-	=48-	=48-	=48-
2D/	.	1F/	.	1d\	.
1BB-/	.	.	.	.	.
*	*	*Xlig	*	*	*
*	*	*lig	*	*	*
.	.	1F/	-a	1d\	.
2BB-/	.	.	.	.	.
=49-	=49-	=49-	=49-	=49-	=49-
*custos:F	*	*	*	*	*
0F\;l	-a	0F/l	.	1c\	-a
*	*	*Xlig	*	*	*
.	.	.	.	1c\;l	.
!LO:LB:g=original	!	!	!	!	!
=50-	=50-	=50-	=50-	=50-	=50-
1F\	Au-	1F/	Au-	1c\	Au-
1D/	-di	1A\	-di	1d\	-di
=51-	=51-	=51-	=51-	=51-	=51-
1D/	fi-	1A\	fi-	1f\	fi-
*	*	*	*	*custos:g	*
1C/	.	1c\	.	2e/	.
!	!	!	!	!LO:LB:g=original	!
.	.	.	.	1g\	.
=52-	=52-	=52-	=52-	=52-	=52-
*	*	*lig	*	*	*
1BB-/	.	1d\	.	.	.
.	.	.	.	2f\	.
1C/	.	1c\	.	1e\	.
*	*	*Xlig	*	*	*
=53-	=53-	=53-	=53-	=53-	=53-
*	*	*lig	*	*	*
2BB-/	.	1d\	.	2d/	.
1B-\	.	.	.	1g\	.
.	.	1c\	.	.	.
2A\	.	.	.	1f\	.
*	*	*Xlig	*	*	*
=54-	=54-	=54-	=54-	=54-	=54-
*	*	*lig	*	*	*
1G\	.	1d\	.	.	.
.	.	.	.	2e\	.
1F\	.	1A\	.	1f\	.
=55-	=55-	=55-	=55-	=55-	=55-
1D/	.	1F/	.	0f\	.
*	*	*Xlig	*	*	*
1F\	.	1A\	.	.	.
=56-	=56-	=56-	=56-	=56-	=56-
*	*	*custos:d	*	*	*
2C/	.	1c\	.	2e\	.
1c\	.	.	.	2f\	.
!	!	!LO:LB:g=original	!	!	!
*	*	*clefC3	*	*	*
*	*	*lig	*	*	*
.	.	1d\	.	1g\	.
2B-\	.	.	.	.	.
=57-	=57-	=57-	=57-	=57-	=57-
1c\	.	1A/	.	0e\	.
2c\	.	1F/	.	.	.
*custos:F	*	*	*	*	*
1A\	.	.	.	.	.
*	*	*Xlig	*	*	*
!LO:LB:g=original	!	!	!	!	!
=58-	=58-	=58-	=58-	=58-	=58-
.	.	1A/	.	1f\	.
2F/	.	.	.	.	.
1A\	.	1c\	.	2e/	.
.	.	.	.	1f\	.
=59-	=59-	=59-	=59-	=59-	=59-
*	*	*lig	*	*	*
1G\	.	1B-/	.	.	.
.	.	.	.	2e/	.
*	*	*	*	*custos:F	*
1F\	.	1A/	.	1f\	.
*	*	*Xlig	*	*	*
!	!	!	!	!LO:LB:g=original	!
=60-	=60-	=60-	=60-	=60-	=60-
2F/	.	1c\	.	2F/	.
2Eny/	.	.	.	2G/	.
*	*	*lig	*	*	*
2D/	.	1d\	.	2A/	.
2BB-/	.	.	.	1B-/	.
=61-	=61-	=61-	=61-	=61-	=61-
1F\	.	1c\	.	.	.
.	.	.	.	2A/	.
*	*	*Xlig	*	*	*
1BB-/	.	1d\	.	1B-/	.
=62-	=62-	=62-	=62-	=62-	=62-
*	*	*lig	*	*	*
1F\	.	1A/	.	1c\	.
1D/	.	1F/	.	2d/	.
.	.	.	.	1f\	.
*	*	*Xlig	*	*	*
=63-	=63-	=63-	=63-	=63-	=63-
1C/	.	1G/	.	.	.
.	.	.	.	2e\	.
*	*	*lig	*	*	*
1c\	.	1F/	.	1f\	.
=64-	=64-	=64-	=64-	=64-	=64-
2c\	.	1F/	.	1f\	.
1A\	.	.	.	.	.
*	*	*Xlig	*	*	*
.	.	1A/	.	2e/	.
2F/	.	.	.	1f\	.
=65-	=65-	=65-	=65-	=65-	=65-
1A\	.	1c\	.	.	.
.	.	.	.	2e/	.
*custos:F	*	*	*	*	*
1G\	.	1d\	.	2g\	.
.	.	.	.	2G/	.
!LO:LB:g=original	!	!	!	!	!
=66-	=66-	=66-	=66-	=66-	=66-
*	*	*lig	*	*	*
*	*	*	*	*custos:A	*
1F\	.	1f\	.	1A/	.
!	!	!	!	!LO:PB:g=original	!
1F\	.	1c\	.	2A/	.
.	.	.	.	1F/	.
*	*	*Xlig	*	*	*
=67-	=67-	=67-	=67-	=67-	=67-
*	*	*lig	*	*	*
1BB-/	-li-	1d\	-li-	.	.
.	.	.	.	1f\	-li-
1D/	.	1A/	.	.	.
.	.	.	.	2d/	.
*	*	*Xlig	*	*	*
=68-	=68-	=68-	=68-	=68-	=68-
*	*	*custos:A	*	*	*
1C/	.	1c\	.	1e\	.
!	!	!LO:PB:g=original	!	!	!
2C/	-a	1c\	-a	2e/	-a
1F\	et	.	.	1a\	et
=69-	=69-	=69-	=69-	=69-	=69-
.	.	1c\	et	.	.
2E/	.	.	.	2g\	.
1D/	.	1d\	.	1f\	.
=70-	=70-	=70-	=70-	=70-	=70-
1C/	.	1e\	.	1e\	.
2BB-/	.	1f\	.	1d\	.
1B-\	.	.	.	.	.
=71-	=71-	=71-	=71-	=71-	=71-
*	*	*lig	*	*	*
.	.	1d\	vi-	2f\	vi-
2G/	vi-	.	.	2g\	.
2A/	.	1c\	.	2e/	.
2F/	.	.	.	2f/	-de
*	*	*Xlig	*	*	*
=72-	=72-	=72-	=72-	=72-	=72-
*	*	*lig	*	*	*
1A\,<	-de	1c\	-de	2f/	.
.	.	.	.	2c/	.
1G\	.	1B-/	.	2d/	.
.	.	.	.	2e/	.
*	*	*Xlig	*	*	*
=73-	=73-	=73-	=73-	=73-	=73-
*	*	*lig	*	*	*
2F/	.	1d\	.	0f\	.
2D/	.	.	.	.	.
*custos:C	*	*	*	*	*
1F\	.	1c\	.	.	.
*	*	*Xlig	*	*	*
!LO:LB:g=original	!	!	!	!	!
=74-	=74-	=74-	=74-	=74-	=74-
*	*	*	*	*custos:e	*
2C/	.	1e\	.	0g\	.
1c\	.	.	.	.	.
.	.	1d\	.	.	.
2B-\	.	.	.	.	.
!	!	!	!	!LO:LB:g=original	!
=75-	=75-	=75-	=75-	=75-	=75-
2c\	.	1c\	.	1e\	.
2C/	.	.	.	.	.
1D/	.	1B-/	.	2d/	.
.	.	.	.	1f\	.
=76-	=76-	=76-	=76-	=76-	=76-
*	*	*lig	*	*	*
1C/	.	1c\	.	.	.
.	.	.	.	2e\	.
1D/	.	1A/	.	1f\	.
*	*	*Xlig	*	*	*
=77-	=77-	=77-	=77-	=77-	=77-
1F\	et	1A/	et	1c\	et
*lig	*	*	*	*	*
1D/	in-	1A/	in-	1d\	in-
=78-	=78-	=78-	=78-	=78-	=78-
1C/	.	1c\	.	2G/	.
*Xlig	*	*	*	*	*
.	.	.	.	2A/	.
*	*	*custos:B	*	*	*
2BB-/	.	1d\	.	1B-/	.
2GG/	.	.	.	.	.
!	!	!LO:LB:g=original	!	!	!
=79-	=79-	=79-	=79-	=79-	=79-
1D/	-cli-	1d\	-cli-	1A/	-cli-
*	*	*lig	*	*	*
2GG/	-na	1d\	-na	1B-/	-na
2G/	.	.	.	.	.
=80-	=80-	=80-	=80-	=80-	=80-
2A/	.	1c\	.	1A/	.
2F/	.	.	.	.	.
*	*	*Xlig	*	*	*
1A\	.	1e\	.	1c\	.
=81-	=81-	=81-	=81-	=81-	=81-
*	*	*lig	*	*	*
2G/	.	1g\	.	2d/	.
*custos:F	*	*	*	*	*
2E/	.	.	.	1c\	.
!LO:PB:g=original	!	!	!	!	!
2F/	.	1d\	.	.	.
2G/	.	.	.	2B-/	.
*	*	*Xlig	*	*	*
=82-	=82-	=82-	=82-	=82-	=82-
1A\	.	1c\	.	1c\	.
*	*	*lig	*	*	*
2F/	.	1c\	.	2A/	.
2E/	.	.	.	1G/	.
=83-	=83-	=83-	=83-	=83-	=83-
1D/	.	1A/	.	.	.
.	.	.	.	2F/	.
*	*	*Xlig	*	*	*
*	*	*lig	*	*	*
*	*	*	*	*custos:F	*
1C/	.	1c\	.	1G/	.
!	!	!	!	!LO:LB:g=original	!
=84-	=84-	=84-	=84-	=84-	=84-
1c\	.	1A/	.	1F/	.
*	*	*Xlig	*	*	*
1A\	.	1c\	au-	1f\	au-
=85-	=85-	=85-	=85-	=85-	=85-
2c\	au-	1c\	-rem	2e\	-rem
2C/	-rem	.	.	1g\	.
1F\	tu-	1c\	tu-	.	.
.	.	.	.	2f\	tu-
=86-	=86-	=86-	=86-	=86-	=86-
*	*	*lig	*	*	*
1C/	-am	1c\	-am	1e\	-am
0D/	.	1A/	.	0f\	.
*	*	*Xlig	*	*	*
=87-	=87-	=87-	=87-	=87-	=87-
.	.	1A/	.	.	.
1C/	.	1c\	.	2e\	.
.	.	.	.	1c\	.
=88-	=88-	=88-	=88-	=88-	=88-
*lig	*	*lig	*	*	*
1G\	.	1d\	.	.	.
.	.	.	.	2B-/	.
1A\	.	1c\	.	1c\	.
*Xlig	*	*Xlig	*	*	*
=89-	=89-	=89-	=89-	=89-	=89-
1G\	.	1d\	.	0g\	.
*custos:F	*	*	*	*	*
*	*	*lig	*	*	*
1C/	.	1e\	.	.	.
!LO:LB:g=original	!	!	!	!	!
=90-	=90-	=90-	=90-	=90-	=90-
0F\	.	1c\	.	0f\	.
*	*	*custos:d	*	*	*
.	.	1c\	.	.	.
*	*	*Xlig	*	*	*
!	!	!LO:LB:g=original	!	!	!
=91-	=91-	=91-	=91-	=91-	=91-
*	*	*clefC4	*	*	*
*	*	*lig	*	*	*
1BB-/	.	1d\	.	1f\	.
1C/	.	1c\	.	1e\,<	.
*	*	*Xlig	*	*	*
=92-	=92-	=92-	=92-	=92-	=92-
1c\	qui-	1A\	qui-	1e\	qui-
2c,<\	-a	1A\	-ia	2e\	-a
1A\	con-	.	.	1c\	con-
=93-	=93-	=93-	=93-	=93-	=93-
.	.	1A\	con-	.	.
2A\	-[cu]-	.	.	2c/	-cu-
1F\	-pi-	1c\	-cu-	1f\	.
=94-	=94-	=94-	=94-	=94-	=94-
*	*	*	*	*custos:d	*
2F/	.	1d\	.	2f\	.
!	!	!	!	!LO:LB:g=original	!
1BB-/	-vit	.	.	1d\	.
.	.	1d\	-pi-	.	.
2BB-/	.	.	.	2d/	-pi-
=95-	=95-	=95-	=95-	=95-	=95-
1F\	.	1c\	-vit	1f\	-vit
*	*	*lig	*	*	*
1D/	.	1d\	.	1f\	.
=96-	=96-	=96-	=96-	=96-	=96-
1E/	.	1G/	.	1g\	.
*	*	*Xlig	*	*	*
1F\	.	1A\	.	1c\	.
=97-	=97-	=97-	=97-	=97-	=97-
*lig	*	*	*	*	*
1D/	rex	1A\	rex	1d\,<	.
1C/	.	1c\	.	1e\	rex
*Xlig	*	*	*	*	*
=98-	=98-	=98-	=98-	=98-	=98-
*	*	*lig	*	*	*
1BB-/	.	1d\	.	1f\	.
*custos:D	*	*	*	*	*
1C/	.	1c\	.	1e\	.
*	*	*Xlig	*	*	*
!LO:LB:g=original	!	!	!	!	!
=99-	=99-	=99-	=99-	=99-	=99-
*lig	*	*	*	*	*
1D/	.	1A\	.	2d/	.
.	.	.	.	1f\	.
*	*	*lig	*	*	*
1C/	.	1c\	.	.	.
.	.	.	.	2e\	.
*Xlig	*	*	*	*	*
=100-	=100-	=100-	=100-	=100-	=100-
1D/	.	1A\	.	2f\	.
.	.	.	.	2d/	.
*	*	*Xlig	*	*	*
*	*	*lig	*	*	*
2C/	.	1c\	.	2e/	.
2AA/	.	.	.	2c/	.
=101-	=101-	=101-	=101-	=101-	=101-
2BB-/	.	1G/	.	2d/	.
2C/	.	.	.	2e/	.
*	*	*Xlig	*	*	*
*	*	*custos:G	*	*custos:g	*
2D/	.	1A\	.	1f\	.
1F\	.	.	.	.	.
!	!	!LO:LB:g=original	!	!LO:LB:g=original	!
=102-	=102-	=102-	=102-	=102-	=102-
*	*	*lig	*	*	*
.	.	1G/	.	1g\	.
2E/	.	.	.	.	.
1F\	.	1F/	.	1c\	.
*	*	*Xlig	*	*	*
=103-	=103-	=103-	=103-	=103-	=103-
2A\	Spe-	1A\	spe-	1c\,<	.
1c\	.	.	.	.	.
*	*	*lig	*	*	*
.	.	1c\	.	1e\	ſpe-
1A\	.	.	.	.	.
=104-	=104-	=104-	=104-	=104-	=104-
.	.	1A\	.	2c/	.
1c\	.	.	.	1e\	.
*	*	*Xlig	*	*	*
.	.	1c\	.	.	.
2F/	.	.	.	2f\	.
=105-	=105-	=105-	=105-	=105-	=105-
1B-\	-ci-	1G/	-ci-	2d/	-ci-
.	.	.	.	2g\	.
2A/	.	1A\	-em	2e,</	-em
1c\	-em	.	.	2f\	.
=106-	=106-	=106-	=106-	=106-	=106-
*	*	*lig	*	*	*
.	.	1c\	.	1e\	.
2C/	.	.	.	.	.
*custos:C	*	*	*	*	*
1D/	.	1A\	.	1f\	.
*	*	*Xlig	*	*	*
!LO:LB:g=original	!	!	!	!	!
=107-	=107-	=107-	=107-	=107-	=107-
*clefF4	*	*lig	*	*	*
2C/	.	1c\	.	2e\	.
2AA/	.	.	.	1f\	.
2BB-/	.	1G/	.	.	.
2C/	.	.	.	2e,<\	.
*	*	*Xlig	*	*	*
=108-	=108-	=108-	=108-	=108-	=108-
2D/	tu-	1F/	tu-	1f\	tu-
2C/	.	.	.	.	.
2BB-/	-am	1F/	-am	2d/	-am
2AA/	.	.	.	2c/	.
=109-	=109-	=109-	=109-	=109-	=109-
1GG/	.	1G/	.	1B-/	.
*	*	*lig	*	*	*
*	*	*	*	*custos:c	*
2FF/	.	1A\	.	2A/	.
!	!	!	!	!LO:PB:g=original	!
1F\	.	.	.	1c\	.
=110-	=110-	=110-	=110-	=110-	=110-
.	.	1G/	.	.	.
2E/	.	.	.	2c/	.
*	*	*Xlig	*	*	*
2F/	.	1F/	.	2F/	.
2A\	.	.	.	1f\	.
=111-	=111-	=111-	=111-	=111-	=111-
1G\	.	1G/	.	.	.
.	.	.	.	2e/	.
1F\	.	1A\	.	1f\	.
=112-	=112-	=112-	=112-	=112-	=112-
1C/	.	1c\	.	0g\	.
1C/	.	1c\	.	.	.
=113-	=113-	=113-	=113-	=113-	=113-
1F\	.	1A\	.	2c/	.
.	.	.	.	1f\	.
*	*	*custos:F	*	*	*
1C/	.	1G/	.	.	.
.	.	.	.	2e/	.
!	!	!LO:LB:g=original	!	!	!
=114-	=114-	=114-	=114-	=114-	=114-
1F\	.	1F/	.	2c/	.
.	.	.	.	2d/	.
1E\	.	1G/	.	1e\	.
=115-	=115-	=115-	=115-	=115-	=115-
*custos:C	*	*	*	*	*
1D\	.	1A\	.	1f\	.
!LO:LB:g=original	!	!	!	!	!
*clefF3	*	*	*	*	*
0C/	.	1c\	.	0e\	.
=116-	=116-	=116-	=116-	=116-	=116-
*	*	*lig	*	*	*
.	.	1c\	.	.	.
1C/	.	1G/	.	1c\	.
*	*	*Xlig	*	*	*
=117-	=117-	=117-	=117-	=117-	=117-
*	*	*lig	*	*	*
1BB-/	.	1B-\	.	1d\	.
0F\	.	1A\	.	1c\	.
*	*	*Xlig	*	*	*
=118-	=118-	=118-	=118-	=118-	=118-
*	*	*lig	*	*	*
.	.	1A\	.	2c/	.
*	*	*	*	*custos:A	*
.	.	.	.	2B-/	.
!	!	!	!	!LO:LB:g=original	!
1c\	.	1F/	.	2A/	.
.	.	.	.	2G/	.
=119-	=119-	=119-	=119-	=119-	=119-
2c\	.	[0F/l	.	0F/	.
2B-\	.	.	.	.	.
*	*	*Xlig	*	*	*
2A/	.	.	.	.	.
2G/	.	.	.	.	.
=120-	=120-	=120-	=120-	=120-	=120-
2F/	.	0F/_	.	1f\	.
2E/	.	.	.	.	.
2D/	.	.	.	2f\	.
2C/	.	.	.	2e\	.
=121-	=121-	=121-	=121-	=121-	=121-
0BB-/	.	0F/_	.	2d/	.
.	.	.	.	2c/	.
.	.	.	.	2B-/	.
.	.	.	.	2d/	.
=122-	=122-	=122-	=122-	=122-	=122-
1F\	.	0F/_	.	1c\	.
1BB-/	.	.	.	1B-/	.
=123-	=123-	=123-	=123-	=123-	=123-
2AA/	.	0F/_	.	2c/	.
2BB-/	.	.	.	2d/	.
[1FF/;l	.	.	.	1c\	.
=124-	=124-	=124-	=124-	=124-	=124-
0FF/]	.	0F/]	.	0c\;l	.
.	.	.	.	.	.
==	==	==	==	==	==
*-	*-	*-	*-	*-	*-
!!!system-decoration: [(s1,s2,s3)]
!!!RDF**kern: l = terminal long
!!!RDF**kern: < = below
!!!ENC: Filip Voros
!!!END: 2021-12-24
!!!EED: Andrzej Borzym
!!!EEV: 2021-12-29
!!!YEC: Copyright 2022 Narodowy Instytut Fryderyka Chopina (https://polishscores.org)
!!!YEM: Licence CC BY 4.0 (https://creativecommons.org/licenses/by/4.0)
